**kern	**silbe	**kern	**silbe
*ICvox	*	*ICvox	*
*B-:	*	*B-:	*
*M4/4	*	*M4/4	*
*clefG2	*	*clefG2	*
r;	.	r;	.
=1	=1	=1	=1
1r	.	1r	.
=2	=2	=2	=2
1r	.	1r	.
=3	=3	=3	=3
8d	Some-	1r	.
8[d	-times	.	.
16d]	_	.	.
16d	when	.	.
8d	I'm	.	.
8.f	down	.	.
16f	and	.	.
8d	all	.	.
16d	a-	.	.
16[d	-lone	.	.
=4	=4	=4	=4
2d]	_	1r	.
8.r	.	.	.
16d	ooh	.	.
16c	_	.	.
8.[B-	_	.	.
=5	=5	=5	=5
8B-]	_	1r	.
8B-	Just	.	.
8B-	like	.	.
16c	a	.	.
16[d	child	.	.
8.d]	_	.	.
16d	wit-	.	.
8B-	-hout	.	.
16B-	a	.	.
16[A-	home	.	.
=6	=6	=6	=6
4A-]	_	1r	.
4r	.	.	.
4r	.	.	.
8.r	.	.	.
16F	The	.	.
=7	=7	=7	=7
8G	love	1r	.
16G	you	.	.
16[G	give	.	.
16G]	_	.	.
8A	me	.	.
16[B-	keeps	.	.
16B-]	_	.	.
8.[B-	me	.	.
16B-]	_	.	.
16B-	han-	.	.
16G	-gin'	.	.
16[F	on	.	.
=8	=8	=8	=8
4F]	_	1r	.
16r	.	.	.
8.F#	Awww	.	.
16G	ho-	.	.
8.[B-	-ney	.	.
4B-]	_	.	.
=9	=9	=9	=9
4r	.	1r	.
16B-	all	.	.
8.B-	I	.	.
16B-	e-	.	.
8B-	-ver	.	.
16[d	need	.	.
8d]	_	.	.
16B-	is	.	.
16d	you	.	.
=10	=10	=10	=10
4c	_	1r	.
4r	.	.	.
2r	.	.	.
=11	=11	=11	=11
1r	.	4r	.
.	.	16d	You're
.	.	8d	my
.	.	8f	first
.	.	8f	love,
.	.	8f	you're
.	.	8f	my
.	.	16[d	last
=12	=12	=12	=12
1r	.	8d]	_
.	.	4c	_
.	.	8r	.
.	.	2r	.
=13	=13	=13	=13
1r	.	8r	.
.	.	8[B-	you're
.	.	16B-_	_
.	.	8B-]	my
.	.	16[d	fu-
.	.	16d]	_
.	.	8d	-ture
.	.	16[d	you're
.	.	16d]	_
.	.	8.d	my
=14	=14	=14	=14
1r	.	8A-	past
.	.	4F	_
.	.	8r	.
.	.	2r	.
=15	=15	=15	=15
1r	.	8r	.
.	.	8G	And
.	.	16G	lo-
.	.	8.A	-ving
.	.	8.B-	you
.	.	16A	is
.	.	16B-	all
.	.	8.G	I
=16	=16	=16	=16
1r	.	8F	ask
.	.	8r	.
.	.	8.r	.
.	.	16[G	Ho-
.	.	16G]	_
.	.	8.B-	-ney
.	.	4r	.
=17	=17	=17	=17
1r	.	4r	.
.	.	16d-	all
.	.	8.d-	I
.	.	16c	e-
.	.	8B-	-ver
.	.	16[d-	need
.	.	8.d-]	_
.	.	16B-	is
=18	=18	=18	=18
1r	.	4B-	you
.	.	4r	.
.	.	2r	.
=19	=19	=19	=19
4r	.	1r	.
16B-	Win-	.	.
8B-	-ters	.	.
16[B-	come	.	.
8.B-]	_	.	.
8G	and	.	.
8B-	they	.	.
16[c	go	.	.
=20	=20	=20	=20
4c]	_	1r	.
4r	.	.	.
2r	.	.	.
=21	=21	=21	=21
4r	.	1r	.
16B-	And	.	.
16B-	uh	.	.
16B-	we	.	.
16[B-	watch	.	.
8B-]	_	.	.
16B-	the	.	.
16[g	mel-	.	.
8.g]	_	.	.
16[d	-ting	.	.
=22	=22	=22	=22
16d]	_	1r	.
16g	snow	.	.
8[f	_	.	.
4f_	_	.	.
4f]	_	.	.
4r	.	.	.
=23	=23	=23	=23
4r	.	1r	.
16g	Sure	.	.
8.g	as	.	.
16g	sum-	.	.
8g	-mer	.	.
16[a	fol-	.	.
16a]	_	.	.
8.g	-lows	.	.
=24	=24	=24	=24
8.f	spring	1r	.
16[d	All	.	.
8d]	_	.	.
16f	the	.	.
16[d	things	.	.
16d]	_	.	.
8c	you	.	.
16[B-	do	.	.
4B-]	_	.	.
=25	=25	=25	=25
8r	.	1r	.
8B-	Give	.	.
16B-	me	.	.
8B-	a	.	.
16[b-	re-	.	.
16b-]	_	.	.
8b-	-ason	.	.
16b-	to	.	.
8b-	built	.	.
8b-	my	.	.
=26	=26	=26	=26
8.b-	world	1r	.
16[f	a-	.	.
4f]	_	.	.
4B-	-round	.	.
16d	you	.	.
16B-	_	.	.
8c	_	.	.
=27	=27	=27	=27
8d	Some-	8B-	Some-
8d	-men	8B-	-men
16d	fo-	16B-	fo-
8d	-llow	8B-	-llow
16[f	rain-	16[d	rain-
8f]	_	8d]	_
8f	-bows	8d	-bows
16f	I	16d	I
8d	am	8B-	am
16[d	told	16[A	told
=28	=28	=28	=28
4d]	_	4A]	_
4r	.	4r	.
2r	.	2r	.
=29	=29	=29	=29
8B-	Some	8G	Some
8B-	men	8G	men
8B-	search	8G	search
8c	for	8A	for
8d	sil-	8B-	sil-
16d	-ver,	16B-	-ver,
16[d	some	16[B-	some
8d]	_	8B-]	_
16B-	for	16G	for
16[A-	gold	16[F	gold
=30	=30	=30	=30
4A-]	_	4F]	_
4r	.	4r	.
2r	.	2r	.
=31	=31	=31	=31
1r	.	8G	I
.	.	8G	have
.	.	8G	found
.	.	8A	my
.	.	16B-	trea-
.	.	8B-	-sure
.	.	16[B-	In
.	.	8B-]	_
.	.	8G	your
=32	=32	=32	=32
1r	.	8F	soul,
.	.	8r	.
.	.	4r	.
.	.	16G	ho-
.	.	8.B-	-ney
.	.	4r	.
=33	=33	=33	=33
1r	.	4r	.
.	.	16d	all
.	.	8.d	I
.	.	16c	e-
.	.	8B-	-ver
.	.	16d-	need
.	.	8c	_
.	.	8B-	_
=34	=34	=34	=34
1r	.	4c	you
.	.	4r	.
.	.	2r	.
=35	=35	=35	=35
16d	With-	16B-	With-
8d	-out	8B-	-out
16[d	love	16[B-	love
16d]	_	16B-]	_
8.d	I'd	8.B-	I'd
16f	ne-	16B-	ne-
8f	-ver	8B-	-ver
16[f	find	16[B-	find
8f]	_	8B-]	_
16e-	the	16B-	the
16[d	way	16[A	way
=36	=36	=36	=36
4d]	_	4A]	_
4r	.	4r	.
4r	.	4r	.
8r	.	8r	.
8B-	Through	8G	Through
=37	=37	=37	=37
8B-	ups	8G	ups
8B-	and	8G	and
8B-	downs	8G	downs
16c	of	16G	of
16[d	e-	16[G	e-
16d]	_	16G]	_
8d	-v'ry	8G	-v'ry
16[d	sing-	16[G	sing-
16d]	_	16G]	_
8B-	-le	8G	-le
16[A-	day	16[F	day
=38	=38	=38	=38
8A-]	_	8F]	_
8r	.	8r	.
4r	.	4r	.
2r	.	2r	.
=39	=39	=39	=39
8G	I	1r	.
8G	won't	.	.
16G	sleep	.	.
8A	at	.	.
16[B-	night	.	.
8B-]	_	.	.
16A	un-	.	.
16[B-	-til	.	.
16B-]	_	.	.
8G	you	.	.
16[F	say,	.	.
=40	=40	=40	=40
4F]	_	1r	.
16r	.	.	.
8.F#	my	.	.
16G	ho-	.	.
8.[B-	-ney	.	.
4B-]	_	.	.
=41	=41	=41	=41
4r	.	1r	.
16B-	All	.	.
8.B-	I	.	.
16B-	e-	.	.
8B-	-ver	.	.
16[d	need	.	.
8d]	_	.	.
16B-	is	.	.
16[B-	you	.	.
=42	=42	=42	=42
4B-]	_	1r	.
4r	.	.	.
2r	.	.	.
=43	=43	=43	=43
1r	.	1r	.
=44	=44	=44	=44
1r	.	8r	.
.	.	8d	Tah
.	.	16d	tah-
.	.	8d	-tah
.	.	16[f	tah-
.	.	8f]	_
.	.	8f	-tah
.	.	16f	tah
.	.	8d	tah
.	.	16[d	tah
=45	=45	=45	=45
4r	.	4d]	_
8r	.	4r	.
8d	Oh	.	.
16c	ho-	2r	.
8B-	-ney	.	.
16d	ho-	.	.
4c	-ney	.	.
=46	=46	=46	=46
1r	.	8r	.
.	.	8B-	tah
.	.	16B-	tah
.	.	8c	tah
.	.	16[d	tah
.	.	8d]	_
.	.	8d	tah
.	.	16d	tah
.	.	8B-	tah
.	.	16[A-	tah
=47	=47	=47	=47
4r	.	4A-]	_
4B-	My	4r	.
16d	ho-	2r	.
16c	-ney	.	.
8B-	_	.	.
16d	ho-	.	.
16c	-ney	.	.
8B-	_	.	.
=48	=48	=48	=48
4r	.	1r	.
16G	sleep	.	.
8A	at	.	.
16[B-	night	.	.
8B-]	_	.	.
16A	un-	.	.
16[B-	-til	.	.
16B-]	_	.	.
8G	you	.	.
16[F	say,	.	.
=49	=49	=49	=49
4F]	_	1r	.
16r	.	.	.
8.F#	my	.	.
16G	ho-	.	.
8.[B-	-ney	.	.
4B-]	_	.	.
=50	=50	=50	=50
4r	.	1r	.
16d	all	.	.
8.d	I	.	.
16c	e-	.	.
8B-	-ver	.	.
16d	need	.	.
8c	_	.	.
8B-	_	.	.
=51	=51	=51	=51
4c	you	1r	.
4r	.	.	.
2r	.	.	.
r;	.	r;	.
r;	.	r;	.
*-	*-	*-	*-
!!!ENC: Nathaniel Condit-Schultz